X:1
T:Bújj, bújj zöld ág
O:Magyar népdal
M:2/4
Q:1/4=100
L:1/8
K:C
G2 A2 | G2 E2 | G2 GA | G2 E2 | GG GA | GF ED | ED ED | C2 C2 | 
w:Bújj, bújj zöld ág, zöld le-ve-lecs-ke! Nyit-va van az a-rany-ka-pu, csak búj-ja-tok raj-ta.
G2 A2 | G2 E2 | GG GA | G2 E2 | GG GA | G2 E2 | GF ED | C2 C2 |]
w:Raj-ta, raj-ta le-sza-kadt a paj-ta, le-sza-kadt a paj-ta, benn ma-radt a macs-ka. 
